X:957
T:Bolt the Door
N:"Collected by Delaney"
B:O'Neill's 957
Z:Transcribed by Dan G. Petersen, dangp@post6.tele.dk
M:6/8
L:1/8
K:Am
g2f|ecA A2B|G2E E2B|c2A B2G|A2B c2d|
ecA A2B|G2E E2B|c2A B2G|ABA A2:|
B|cBA G2B|e3 d2B|c2A B2G|A2B c2d|
ecA A2d|e3 d2B|c2A B2A|G3 g2e|
cBA G2d|e3 d2B|c2A B2G|A2B c2d|
ecA A2d|e2a a2^f|g2e d2B|A3|]


